!!!!SEGMENT: pl-kk--kk-i-279--002_anonim--salutis-humanae-sator.krn
!!!cenid: 17xx:2090
!!!COM: Anonim
!!!COM-rismid: pe30004985
!!!CDT:
!!!CNT:
!!!OTL: Salutis humanae sator
!!!PDT:
!!!AGN: Sacred
!!!SMS-siglum: PL-Kk
!!!SMS-shelfmark: Kk.I.279
!!!SMS-shelfwork: 002 W
!!!SMS-variant:
!!!SMS-altvar:
!!!NIFC-rismid: 1001147344
!!!URL-scan: http://repozytorium.nifc.pl/skany/pl-kk-nut--i-279
!!!ONB-nifc: UWAGA: utwory w zbiorze: 1. Verbum supernum prodiens, 2. Salutis humanae sator
!!!key:
**kern	**text	**text	**text	**kern	**text	**text	**text	**kern	**text	**text	**text	**kern	**text	**text	**text
*part4	*part4	*part4	*part4	*part3	*part3	*part3	*part3	*part2	*part2	*part2	*part2	*part1	*part1	*part1	*part1
*staff4	*staff4	*staff4	*staff4	*staff3	*staff3	*staff3	*staff3	*staff2	*staff2	*staff2	*staff2	*staff1	*staff1	*staff1	*staff1
*Ibass	*	*	*	*Itenor	*	*	*	*Ialto	*	*	*	*Isoprn	*	*	*
*I"[Bassus]	*	*	*	*I"[Tenor]	*	*	*	*I"Alto.	*	*	*	*I"Canto	*	*	*
*I'B	*	*	*	*I'T	*	*	*	*I'A	*	*	*	*I'S	*	*	*
*clefF4	*	*	*	*clefC4	*	*	*	*clefC3	*	*	*	*clefC1	*	*	*
*k[]	*	*	*	*k[]	*	*	*	*k[]	*	*	*	*k[]	*	*	*
*d:	*	*	*	*d:	*	*	*	*d:	*	*	*	*d:	*	*	*
*M2/1	*	*	*	*M2/1	*	*	*	*M2/1	*	*	*	*M2/1	*	*	*
*met(C|)	*	*	*	*met(C|)	*	*	*	*met(C|)	*	*	*	*met(C|)	*	*	*
=1-	=1-	=1-	=1-	=1-	=1-	=1-	=1-	=1-	=1-	=1-	=1-	=1-	=1-	=1-	=1-
*	*	*	*	*lig	*	*	*	*	*	*	*	*	*	*	*
!!LO:TX:t=P:problem:we wszystkim głosach tekst słowny zapisany pismem ciążącym w stronę kursywy, co powoduje trudności w zaproponowaniu formy "s", "S" lub "ſ"; przyjęte rozwiązanie faworyzuje lekcję "s", dając wersje pozostałe jedynie w oczywistych przypadkach
!LO:TX:a:t=De Aſcenſione D(omi)ni.	!	!	!	!LO:TX:a:t=De Aſcenſione D(omi)ni.	!	!	!	!LO:TX:a:t=De Aſcenſione D(omi)ni.	!	!	!	!LO:TX:a:t=De Aſcenſione D(omi)ni.	!	!	!
!	!	!	!	!	!	!	!	!LO:TX:t=P:problem=kreska pseudotaktowa	!	!	!	!	!	!	!
!	!	!	!	!	!	!	!	!LO:TX:t=P:problem=nazwa partii słabo widoczna (skan 0004)	!	!	!	!	!	!	!
!LO:TX:t=P:problem=przed kluczem inicjał S	!	!	!	!LO:TX:t=P:problem=przed kluczem inicjał S	!	!	!	!LO:TX:t=P:problem=przed kluczem inicjał S	!	!	!	!LO:TX:t=P:problem=przed kluczem inicjał S	!	!	!
1D	1 Sa-	3 Per-	.	1F	1 Sa-	3 Per-	.	0r	.	.	.	00r	.	.	.
!	!	!	!	!LO:TX:t=P:problem=kreska pseudotaktowa	!	!	!	!	!	!	!	!	!	!	!
(2E\	.	.	.	1E	.	.	.	.	.	.	.	.	.	.	.
!LO:TX:t=P:problem=kreska pseudotaktowa	!	!	!	!	!	!	!	!	!	!	!	!	!	!	!
2C/)	.	.	.	.	.	.	.	.	.	.	.	.	.	.	.
*	*	*	*	*Xlig	*	*	*	*	*	*	*	*	*	*	*
=2-	=2-	=2-	=2-	=2-	=2-	=2-	=2-	=2-	=2-	=2-	=2-	=2-	=2-	=2-	=2-
2BB-X/	-lu-	-rum-	.	1G	-lu-	-rum-	.	1.d	1 Sa-	3 Per-	.	.	.	.	.
2GG/	-tis	-pis	.	.	.	.	.	.	.	.	.	.	.	.	.
*	*	*	*	*lig	*	*	*	*	*	*	*	*	*	*	*
2D/	hu-	in-	.	1A	.	.	.	.	.	.	.	.	.	.	.
1F\	-ma-	-fer-	.	.	.	.	.	2c/	.	.	.	.	.	.	.
=3-	=3-	=3-	=3-	=3-	=3-	=3-	=3-	=3-	=3-	=3-	=3-	=3-	=3-	=3-	=3-
!	!	!	!	!	!	!	!	!	!	!	!	!LO:TX:t=P:problem=kreska pseudotaktowa	!	!	!
.	.	.	.	1G	.	.	.	2B-X/	-lu-	-rum-	.	1r	.	.	.
!	!	!	!	!	!	!	!	!LO:TX:t=P:problem=kreska pseudotaktowa	!	!	!	!	!	!	!
2E\	-nae	-nu(m)	.	.	.	.	.	2G/	-tis	-pis	.	.	.	.	.
*	*	*	*	*Xlig	*	*	*	*	*	*	*	*	*	*	*
*	*	*	*	*lig	*	*	*	*	*	*	*	*	*	*	*
2F\	hu-	in-	.	1F	.	.	.	(2c\	hu-	in-	.	1.a	1 Sa-	3 Per-	.
2D/	-ma-	-fer-	.	.	.	.	.	2d\)	.	.	.	.	.	.	.
=4-	=4-	=4-	=4-	=4-	=4-	=4-	=4-	=4-	=4-	=4-	=4-	=4-	=4-	=4-	=4-
!	!	!	!	!	!	!	!	!LO:TX:t=P:problem=kreska pseudotaktowa	!	!	!	!	!	!	!
2.AA/	-nae	-nu(m)	.	1E	.	.	.	1e	-ma-	-fer-	.	.	.	.	.
!	!	!	!	!	!	!	!	!	!	!	!	!LO:TX:t=P:problem=kreska pseudotaktowa	!	!	!
.	.	.	.	.	.	.	.	.	.	.	.	2g/	.	.	.
4AA/	ſa-	cha-	.	.	.	.	.	.	.	.	.	.	.	.	.
*	*	*	*	*Xlig	*	*	*	*	*	*	*	*	*	*	*
!LO:TX:t=P:problem=kreska pseudotaktowa	!	!	!	!LO:TX:t=P:problem=kreska pseudotaktowa	!	!	!	!	!	!	!	!	!	!	!
1D	-tor	-os	.	1D	-tis	pis	.	2f\	-nae	-nu(m)	.	2f/	-lu-	-rum-	.
!	!	!	!	!	!	!	!	!	!	!	!	!LO:TX:t=P:problem=kreska pseudotaktowa	!	!	!
.	.	.	.	.	.	.	.	2a\	hu-	in-	.	2d/	-tis	-pis	.
=5-	=5-	=5-	=5-	=5-	=5-	=5-	=5-	=5-	=5-	=5-	=5-	=5-	=5-	=5-	=5-
0r	.	.	.	1F	hu-	in-	.	2f\	-ma-	-fer-	.	2a\	hu-	in-	.
!	!	!	!	!	!	!	!	!LO:TX:t=P:problem=kreska pseudotaktowa	!	!	!	!	!	!	!
.	.	.	.	.	.	.	.	2d\	-nae	-nu(m)	.	1dd	-ma-	-fer-	.
.	.	.	.	1E	-ma-	-fer-	.	1g	ſa-	cha-	.	.	.	.	.
!	!	!	!	!	!	!	!	!	!	!	!	!LO:TX:t=P:problem=kreska pseudotaktowa	!	!	!
.	.	.	.	.	.	.	.	.	.	.	.	2cc\	.	.	.
=6-	=6-	=6-	=6-	=6-	=6-	=6-	=6-	=6-	=6-	=6-	=6-	=6-	=6-	=6-	=6-
*	*	*	*	*lig	*	*	*	*	*	*	*	*	*	*	*
!	!	!	!	!	!	!	!	!LO:TX:t=P:problem=kreska pseudotaktowa	!	!	!	!	!	!	!
2r	.	.	.	1F	.	.	.	1f	-tor	-os	.	2dd\	-nae	-nu(m)	.
!LO:TX:t=P:problem=kreska pseudotaktowa	!	!	!	!	!	!	!	!	!	!	!	!LO:TX:t=P:problem=kreska pseudotaktowa	!	!	!
2F\	Sa-	per-	.	.	.	.	.	.	.	.	.	2a\	hu-	in-	.
2E\	-lu-	-rum-	.	1G	.	.	.	2r	.	.	.	2.cc\	-ma-	-fer-	.
!	!	!	!	!	!	!	!	!LO:TX:t=P:problem=kreska pseudotaktowa	!	!	!	!	!	!	!
2C/	-tis	-pis	.	.	.	.	.	2e\	Sa-	Per-	.	.	.	.	.
!	!	!	!	!	!	!	!	!	!	!	!	!LO:TX:t=P:problem=kreska pseudotaktowa	!	!	!
.	.	.	.	.	.	.	.	.	.	.	.	4b-X\	.	.	.
*	*	*	*	*Xlig	*	*	*	*	*	*	*	*	*	*	*
=7-	=7-	=7-	=7-	=7-	=7-	=7-	=7-	=7-	=7-	=7-	=7-	=7-	=7-	=7-	=7-
!	!	!	!	!LO:TX:t=P:problem=kreska pseudotaktowa	!	!	!	!	!	!	!	!	!	!	!
4D/	hu-	in-	.	1F	-nae	-nu(m)	.	2f\	-lu-	-rum-	.	4a\	.	.	.
4AA/	.	.	.	.	.	.	.	.	.	.	.	4g\	.	.	.
1D	-ma-	-fer-	.	.	.	.	.	2d\	-tis	-pis	.	4f/	.	.	.
!	!	!	!	!	!	!	!	!	!	!	!	!LO:TX:t=P:problem=kreska pseudotaktowa	!	!	!
.	.	.	.	.	.	.	.	.	.	.	.	4d/	.	.	.
*	*	*	*	*lig	*	*	*	*	*	*	*	*	*	*	*
.	.	.	.	1E	Sa-	cha-	.	2e\	hu-	in-	.	2g\	-nae	-nu(m)	.
!LO:TX:t=P:problem=kreska pseudotaktowa	!	!	!	!	!	!	!	!LO:TX:t=P:problem=kreska pseudotaktowa	!	!	!	!	!	!	!
2C/	-nae	-nu(m)	.	.	.	.	.	2c/	-ma-	-fer-	.	1a\	Sa-	cha-	.
=8-	=8-	=8-	=8-	=8-	=8-	=8-	=8-	=8-	=8-	=8-	=8-	=8-	=8-	=8-	=8-
1BB-X	sa-	cha-	.	1D	.	.	.	2.d\	-nae	-nu(m)	.	.	.	.	.
.	.	.	.	.	.	.	.	.	.	.	.	2g/	.	.	.
.	.	.	.	.	.	.	.	4d\	Sa-	cha-	.	.	.	.	.
*	*	*	*	*Xlig	*	*	*	*	*	*	*	*	*	*	*
!	!	!	!	!	!	!	!	!LO:TX:t=P:problem=kreska pseudotaktowa	!	!	!	!	!	!	!
!LO:TX:t=P:problem=kreska pseudotaktowa	!	!	!	!LO:TX:t=P:problem=kreska pseudotaktowa	!	!	!	!LO:TX:a:t=P:problem=# above	!	!	!	!LO:TX:t=P:problem=kreska pseudotaktowa	!	!	!
1AA	-tor	-os	.	1E	-tor	-os	.	1c#X	-tor	-os.	.	1a	-tor	-os	.
=9-	=9-	=9-	=9-	=9-	=9-	=9-	=9-	=9-	=9-	=9-	=9-	=9-	=9-	=9-	=9-
!	!	!	!	!	!	!	!	!	!	!	!	!LO:TX:a:t=8	!	!	!
0r	.	.	.	1G	Je-	Vin-	.	00r	.	.	.	00r	.	.	.
*	*	*	*	*lig	*	*	*	*	*	*	*	*	*	*	*
.	.	.	.	1A	-Su	-ctis	.	.	.	.	.	.	.	.	.
=10-	=10-	=10-	=10-	=10-	=10-	=10-	=10-	=10-	=10-	=10-	=10-	=10-	=10-	=10-	=10-
1C	Je-	Vin-	.	1.c	.	.	.	.	.	.	.	.	.	.	.
*lig	*	*	*	*	*	*	*	*	*	*	*	*	*	*	*
1D	-su	-ctis	.	.	.	.	.	.	.	.	.	.	.	.	.
*	*	*	*	*Xlig	*	*	*	*	*	*	*	*	*	*	*
!	!	!	!	!LO:TX:t=P:problem=kreska pseudotaktowa	!	!	!	!	!	!	!	!	!	!	!
.	.	.	.	2B\	Vo-	Ca-	.	.	.	.	.	.	.	.	.
=11-	=11-	=11-	=11-	=11-	=11-	=11-	=11-	=11-	=11-	=11-	=11-	=11-	=11-	=11-	=11-
!	!	!	!	!	!	!	!	!LO:TX:t=P:problem=kreska pseudotaktowa	!	!	!	!	!	!	!
1.F	.	.	.	1A	-lup-	-tê-	.	1r	.	.	.	00r	.	.	.
.	.	.	.	1G	-tas	-nas	.	1cny	Je-	Vin-	.	.	.	.	.
*Xlig	*	*	*	*	*	*	*	*	*	*	*	*	*	*	*
!LO:TX:t=P:problem=kreska pseudotaktowa	!	!	!	!	!	!	!	!	!	!	!	!	!	!	!
2E\	Vo-	ca-	.	.	.	.	.	.	.	.	.	.	.	.	.
=12-	=12-	=12-	=12-	=12-	=12-	=12-	=12-	=12-	=12-	=12-	=12-	=12-	=12-	=12-	=12-
*	*	*	*	*	*	*	*	*lig	*	*	*	*	*	*	*
0D	-lup-	-te-	.	4F/	.	.	.	1d	-Su	-ctis	.	.	.	.	.
.	.	.	.	4E/	.	.	.	.	.	.	.	.	.	.	.
.	.	.	.	4F/	cor-	de-	.	.	.	.	.	.	.	.	.
!	!	!	!	!LO:TX:t=P:problem=kreska pseudotaktowa	!	!	!	!	!	!	!	!	!	!	!
.	.	.	.	4G/	.	.	.	.	.	.	.	.	.	.	.
.	.	.	.	2A/	.	.	.	1.f	.	.	.	.	.	.	.
.	.	.	.	2B\	.	.	.	.	.	.	.	.	.	.	.
*	*	*	*	*	*	*	*	*Xlig	*	*	*	*	*	*	*
=13-	=13-	=13-	=13-	=13-	=13-	=13-	=13-	=13-	=13-	=13-	=13-	=13-	=13-	=13-	=13-
!LO:TX:t=P:problem=kreska pseudotaktowa	!	!	!	!	!	!	!	!	!	!	!	!LO:TX:t=P:problem=kreska pseudotaktowa	!	!	!
1C	-tas	-nas	.	2.c\	.	.	.	.	.	.	.	1g	Je-	Vin-	.
!	!	!	!	!	!	!	!	!LO:TX:t=P:problem=kreska pseudotaktowa	!	!	!	!	!	!	!
.	.	.	.	.	.	.	.	2e\	Vo-	ca-	.	.	.	.	.
.	.	.	.	4B\	-di-	-tra-	.	.	.	.	.	.	.	.	.
*	*	*	*	*	*	*	*	*	*	*	*	*lig	*	*	*
2.FF/	cor-	de-	.	2.A\	-u(m)	-his	.	2d\	-lup-	-te-	.	1a	-su	-ctis	.
.	.	.	.	.	.	.	.	2.c\	.	.	.	.	.	.	.
!LO:TX:t=P:problem=kreska pseudotaktowa	!	!	!	!	!	!	!	!	!	!	!	!	!	!	!
4GG/	.	.	.	8G/L	.	.	.	.	.	.	.	.	.	.	.
!	!	!	!	!LO:TX:t=P:problem=kreska pseudotaktowa	!	!	!	!	!	!	!	!	!	!	!
.	.	.	.	8F/J	.	.	.	.	.	.	.	.	.	.	.
=14-	=14-	=14-	=14-	=14-	=14-	=14-	=14-	=14-	=14-	=14-	=14-	=14-	=14-	=14-	=14-
4AA/	.	.	.	2E/	.	.	.	.	.	.	.	1.cc	.	.	.
4BBny/	.	.	.	.	.	.	.	4d\	.	.	.	.	.	.	.
!	!	!	!	!	!	!	!	!LO:TX:t=P:problem=kreska pseudotaktowa	!	!	!	!	!	!	!
4C/	.	.	.	1A	Vo-	ca-	.	2e\	-tas	-naſ	.	.	.	.	.
!LO:TX:t=P:problem=kreska pseudotaktowa	!	!	!	!	!	!	!	!	!	!	!	!	!	!	!
4D/	.	.	.	.	.	.	.	.	.	.	.	.	.	.	.
*lig	*	*	*	*	*	*	*	*	*	*	*	*	*	*	*
1E	.	.	.	.	.	.	.	2e\	Vo-	ca-	.	.	.	.	.
*	*	*	*	*	*	*	*	*	*	*	*	*Xlig	*	*	*
!	!	!	!	!LO:TX:t=P:problem=kreska pseudotaktowa	!	!	!	!	!	!	!	!	!	!	!
!	!	!	!	!LO:TX:a:t=P:problem=# above	!	!	!	!	!	!	!	!LO:TX:t=P:problem=kreska pseudotaktowa	!	!	!
.	.	.	.	2G#X/	-lup-	-te-	.	1e\	-lup-	-te-	.	2bny\	Vo-	Ca-	.
=15-	=15-	=15-	=15-	=15-	=15-	=15-	=15-	=15-	=15-	=15-	=15-	=15-	=15-	=15-	=15-
!LO:TX:t=P:problem=kreska pseudotaktowa	!	!	!	!	!	!	!	!	!	!	!	!	!	!	!
1F	.	.	.	2.A\	-tas	-nas	.	.	.	.	.	2a\	-lup-	-te-	.
!	!	!	!	!	!	!	!	!	!	!	!	!LO:TX:t=P:problem=kreska pseudotaktowa	!	!	!
!	!	!	!	!	!	!	!	!LO:TX:t=P:problem=kreska pseudotaktowa	!	!	!	!	!	!	!
.	.	.	.	.	.	.	.	2d\	-tas	-naſ	.	2a\	-taſ	-naſ	.
.	.	.	.	4B\	.	.	.	.	.	.	.	.	.	.	.
*Xlig	*	*	*	*	*	*	*	*	*	*	*	*	*	*	*
1.E	.	.	.	2c\	.	.	.	1.e	Cor-	dê-	.	2g#X/	Vo-	ca-	.
.	.	.	.	4B\	cor-	de-	.	.	.	.	.	1a\	-lup-	-te-	.
!	!	!	!	!LO:TX:t=P:problem=kreska pseudotaktowa	!	!	!	!	!	!	!	!	!	!	!
.	.	.	.	4A\	.	.	.	.	.	.	.	.	.	.	.
=16-	=16-	=16-	=16-	=16-	=16-	=16-	=16-	=16-	=16-	=16-	=16-	=16-	=16-	=16-	=16-
.	.	.	.	2.B\	.	.	.	.	.	.	.	.	.	.	.
!	!	!	!	!	!	!	!	!	!	!	!	!LO:TX:t=P:problem=kreska pseudotaktowa	!	!	!
!LO:TX:t=P:problem=kreska pseudotaktowa	!	!	!	!	!	!	!	!LO:TX:t=P:problem=kreska pseudotaktowa	!	!	!	!LO:TX:t=P:problem=# above	!	!	!
2E\	-di-	-tra-	.	.	.	.	.	2e\	-di-	-tra-	.	2g#X/	-taſ	-naſ	.
.	.	.	.	4B\	-di-	-tra-	.	.	.	.	.	.	.	.	.
2AA/	-u(m)	-his	.	2A/	-u(m)	-his	.	2c\	-u(m)	-his	.	2.a\	cor-	de-	.
!	!	!	!	!LO:TX:t=P:problem=kreska pseudotaktowa	!	!	!	!	!	!	!	!	!	!	!
2.FF/	or-	Vic-	.	2c\	or-	Vic-	.	1f\	Vo-	Ca-	.	.	.	.	.
!	!	!	!	!	!	!	!	!	!	!	!	!LO:TX:t=P:problem=kreska pseudotaktowa	!	!	!
.	.	.	.	.	.	.	.	.	.	.	.	4a\	-di-	-tra-	.
=17-	=17-	=17-	=17-	=17-	=17-	=17-	=17-	=17-	=17-	=17-	=17-	=17-	=17-	=17-	=17-
.	.	.	.	2c\	-bis	-tor	.	.	.	.	.	2a\	-u(m)	-his	.
4FF/	-bis	-tor	.	.	.	.	.	.	.	.	.	.	.	.	.
!LO:TX:t=P:problem=kreska pseudotaktowa	!	!	!	!	!	!	!	!LO:TX:t=P:problem=kreska pseudotaktowa	!	!	!	!LO:TX:t=P:problem=kreska pseudotaktowa	!	!	!
2C/	red-	tri-	.	2c\	red-	tri-	.	2e\	-lup-	-te-	.	2gny/	Vo-	Ca-	.
2D/	-emp-	-um-	.	2A/	-emp-	-um-	.	2d\	-tas	-naſ	.	2f/	-lup-	-tê-	.
!	!	!	!	!LO:TX:t=P:problem=kreska pseudotaktowa	!	!	!	!	!	!	!	!LO:TX:t=P:problem=kreska pseudotaktowa	!	!	!
2D/	-ti	-pho	.	2A/	-ti	-pho	.	2.d\	cor-	de-	.	2f/	-taſ	-naſ	.
=18-	=18-	=18-	=18-	=18-	=18-	=18-	=18-	=18-	=18-	=18-	=18-	=18-	=18-	=18-	=18-
2.AA/	con-	No-	.	2.A/	con-	No-	.	.	.	.	.	2.e/	cor-	de-	.
.	.	.	.	.	.	.	.	4c\	-di-	-tra-	.	.	.	.	.
!	!	!	!	!	!	!	!	!LO:TX:t=P:problem=kreska pseudotaktowa	!	!	!	!	!	!	!
.	.	.	.	.	.	.	.	2c/	-u(m)	-his	.	.	.	.	.
!	!	!	!	!LO:SIC:v:custos:A	!	!	!	!	!	!	!	!	!	!	!
4AA/	-di-	-bi-	.	4A/	-di-	-bi-	.	.	.	.	.	4e/	-di-	-tra-	.
*	*	*	*	*	*	*	*	*lig	*	*	*	*	*	*	*
!LO:TX:t=P:problem=kreska pseudotaktowa	!	!	!	!LO:TX:t=P:problem=kreska pseudotaktowa	!	!	!	!	!	!	!	!LO:TX:t=P:problem=kreska pseudotaktowa	!	!	!
!	!	!	!	!LO:LB:g=original	!	!	!	!	!	!	!	!	!	!	!
1D	-tor	-li	.	1A	-tor	-li	.	1d	or-	Vi-	.	1d	-u(m)	-his	.
=19-	=19-	=19-	=19-	=19-	=19-	=19-	=19-	=19-	=19-	=19-	=19-	=19-	=19-	=19-	=19-
*	*	*	*	*	*	*	*	*	*	*	*	*lig	*	*	*
!	!	!	!	!	!	!	!	!LO:TX:t=P:problem=kreska pseudotaktowa	!	!	!	!	!	!	!
00r	.	.	.	0r	.	.	.	1e	.	.	.	1g	or-	Vic-	.
*	*	*	*	*	*	*	*	*Xlig	*	*	*	*	*	*	*
.	.	.	.	.	.	.	.	2d\	.	.	.	1a	.	.	.
!	!	!	!	!	!	!	!	!LO:TX:t=P:problem=kreska pseudotaktowa	!	!	!	!	!	!	!
.	.	.	.	.	.	.	.	2c/	-bis	-ctor	.	.	.	.	.
*	*	*	*	*	*	*	*	*	*	*	*	*Xlig	*	*	*
=20-	=20-	=20-	=20-	=20-	=20-	=20-	=20-	=20-	=20-	=20-	=20-	=20-	=20-	=20-	=20-
*	*	*	*	*lig	*	*	*	*	*	*	*	*	*	*	*
.	.	.	.	1Gny	et	ad	.	4Bny/	re-	tri-	.	2g/	.	.	.
!	!	!	!	!	!	!	!	!LO:SIC:v:custos:d	!	!	!	!	!	!	!
.	.	.	.	.	.	.	.	4c/	.	.	.	.	.	.	.
!	!	!	!	!	!	!	!	!LO:LB:g=original	!	!	!	!LO:TX:t=P:problem=kreska pseudotaktowa	!	!	!
.	.	.	.	.	.	.	.	1d	.	.	.	2f/	-bis	-tor	.
.	.	.	.	1A	.	.	.	.	.	.	.	2.e/	red-	tri-	.
!	!	!	!	!	!	!	!	!LO:TX:t=P:problem=kreska pseudotaktowa	!	!	!	!	!	!	!
.	.	.	.	.	.	.	.	2c/	.	.	.	.	.	.	.
!	!	!	!	!	!	!	!	!	!	!	!	!LO:TX:t=P:problem=kreska pseudotaktowa	!	!	!
.	.	.	.	.	.	.	.	.	.	.	.	4f/	-emp-	-um-	.
*	*	*	*	*Xlig	*	*	*	*	*	*	*	*	*	*	*
=21-	=21-	=21-	=21-	=21-	=21-	=21-	=21-	=21-	=21-	=21-	=21-	=21-	=21-	=21-	=21-
!LO:TX:t=P:problem=kreska pseudotaktowa	!	!	!	!	!	!	!	!	!	!	!	!	!	!	!
0r	.	.	.	2G/	caſ-	dex-	.	2B/	-demp-	-um-	.	2g/	-ti	-pho	.
!	!	!	!	!LO:TX:t=P:problem=kreska pseudotaktowa	!	!	!	!LO:TX:t=P:problem=kreska pseudotaktowa	!	!	!	!	!	!	!
.	.	.	.	2F/	.	.	.	2A/	-ti	-pho	.	1d	Con-	no-	.
.	.	.	.	1E	-ta	-te-	.	2.G/	Con-	No-	.	.	.	.	.
!	!	!	!	!	!	!	!	!	!	!	!	!LO:TX:a:t=P:problem=# above	!	!	!
.	.	.	.	.	.	.	.	.	.	.	.	2c#X/	-di-	-bi-	.
.	.	.	.	.	.	.	.	4G/	-di-	-bi-	.	.	.	.	.
=22-	=22-	=22-	=22-	=22-	=22-	=22-	=22-	=22-	=22-	=22-	=22-	=22-	=22-	=22-	=22-
*lig	*	*	*	*	*	*	*	*	*	*	*	*	*	*	*
!	!	!	!	!LO:TX:t=P:problem=kreska pseudotaktowa	!	!	!	!	!	!	!	!LO:TX:t=P:problem=kreska pseudotaktowa	!	!	!
1D	et	ad	.	1F	lux	-ra(m)	.	2A/	-tor	-li	.	1d	-tor	-li	.
.	.	.	.	.	.	.	.	4d\	con-	No-	.	.	.	.	.
!	!	!	!	!	!	!	!	!LO:TX:t=P:problem=kreska pseudotaktowa	!	!	!	!	!	!	!
.	.	.	.	.	.	.	.	4c/	.	.	.	.	.	.	.
*	*	*	*	*lig	*	*	*	*	*	*	*	*	*	*	*
!LO:TX:t=P:problem=kreska pseudotaktowa	!	!	!	!	!	!	!	!	!	!	!	!	!	!	!
!LO:SIC:v:custos:D	!	!	!	!	!	!	!	!	!	!	!	!	!	!	!
!	!	!	!	!	!	!	!	!	!	!	!	!LO:LB:g=original	!	!	!
1E	.	.	.	1G	et	ad	.	4B/	.	.	.	0r	.	.	.
.	.	.	.	.	.	.	.	4A/	.	.	.	.	.	.	.
.	.	.	.	.	.	.	.	4B/	.	.	.	.	.	.	.
!	!	!	!	!	!	!	!	!LO:TX:t=P:problem=kreska pseudotaktowa	!	!	!	!	!	!	!
!	!	!	!	!	!	!	!	!LO:TX:a:t=P:problem=# above	!	!	!	!	!	!	!
.	.	.	.	.	.	.	.	4c#X/	.	.	.	.	.	.	.
*Xlig	*	*	*	*	*	*	*	*	*	*	*	*	*	*	*
=23-	=23-	=23-	=23-	=23-	=23-	=23-	=23-	=23-	=23-	=23-	=23-	=23-	=23-	=23-	=23-
!LO:LB:g=original	!	!	!	!	!	!	!	!	!	!	!	!	!	!	!
2D/	caſ-	dex-	.	1A	.	.	.	4.d\	.	.	.	.	.	.	.
.	.	.	.	.	.	.	.	8d\	-di-	-bi-	.	.	.	.	.
!LO:TX:t=P:problem=kreska pseudotaktowa	!	!	!	!	!	!	!	!LO:TX:t=P:problem=kreska pseudotaktowa	!	!	!	!	!	!	!
2C/	-ta	-te-	.	.	.	.	.	2A/	-tor	-li	.	.	.	.	.
*	*	*	*	*Xlig	*	*	*	*lig	*	*	*	*	*	*	*
!	!	!	!	!	!	!	!	!LO:TX:t=P:problem=kreska pseudotaktowa	!	!	!	!	!	!	!
!	!	!	!	!	!	!	!	!	!	!	!	!LO:TX:t=P:problem=kreska pseudotaktowa	!	!	!
4BB/	.	.	.	2G/	caſ-	dex-	.	1d	et	ad	.	1r	.	.	.
4C/	.	.	.	.	.	.	.	.	.	.	.	.	.	.	.
!	!	!	!	!LO:TX:t=P:problem=kreska pseudotaktowa	!	!	!	!	!	!	!	!	!	!	!
4D/	.	.	.	2F/	.	.	.	.	.	.	.	.	.	.	.
4BB/	.	.	.	.	.	.	.	.	.	.	.	.	.	.	.
=24-	=24-	=24-	=24-	=24-	=24-	=24-	=24-	=24-	=24-	=24-	=24-	=24-	=24-	=24-	=24-
*	*	*	*	*	*	*	*	*	*	*	*	*lig	*	*	*
2C/	lux	-ra(m)	.	4E/	-ta	-te-	.	1e	.	.	.	1g	et	ad	.
.	.	.	.	4F/	.	.	.	.	.	.	.	.	.	.	.
!LO:TX:t=P:problem=kreska pseudotaktowa	!	!	!	!	!	!	!	!	!	!	!	!	!	!	!
2C/	et	ad	.	4G/	.	.	.	.	.	.	.	.	.	.	.
.	.	.	.	4E/	.	.	.	.	.	.	.	.	.	.	.
*	*	*	*	*	*	*	*	*Xlig	*	*	*	*	*	*	*
!	!	!	!	!	!	!	!	!	!	!	!	!LO:TX:t=P:problem=kreska pseudotaktowa	!	!	!
4FF/	ca-	dex-	.	2F/	lux	-ra(m)	.	2d\	Ca-	dex-	.	1a	.	.	.
4GG/	.	.	.	.	.	.	.	.	.	.	.	.	.	.	.
!	!	!	!	!LO:TX:t=P:problem=kreska pseudotaktowa	!	!	!	!LO:TX:t=P:problem=kreska pseudotaktowa	!	!	!	!	!	!	!
4AA/	.	.	.	2F/	caſ-	dêx-	.	2cny/	.	-te-	.	.	.	.	.
4FF/	.	.	.	.	.	.	.	.	.	.	.	.	.	.	.
*	*	*	*	*	*	*	*	*	*	*	*	*Xlig	*	*	*
=25-	=25-	=25-	=25-	=25-	=25-	=25-	=25-	=25-	=25-	=25-	=25-	=25-	=25-	=25-	=25-
2GG/	.	.	.	4D/	-ta	-te-	.	4B/	-ſta	-ra(m)	.	2g/	Caſ-	dex-	.
.	.	.	.	4E/	.	.	.	4c/	.	.	.	.	.	.	.
!LO:TX:t=P:problem=kreska pseudotaktowa	!	!	!	!	!	!	!	!	!	!	!	!	!	!	!
2D\	-Sta	-te-	.	4F/	.	.	.	4d\	.	.	.	2f/	-ta	-te-	.
.	.	.	.	4G/	.	.	.	4B/	.	.	.	.	.	.	.
2AA/	lux	-ra(m)	.	2A/	lux	-ra(m)	.	2c#X/	lux	Pa-	.	2e/	lux	-ram	.
!	!	!	!	!LO:TX:t=P:problem=kreska pseudotaktowa	!	!	!	!	!	!	!	!	!	!	!
2BB/	a-	Pat-	.	2F/	a-	Pat-	.	2d\	a-	.	.	2d/	a-	Pat-	.
=26-	=26-	=26-	=26-	=26-	=26-	=26-	=26-	=26-	=26-	=26-	=26-	=26-	=26-	=26-	=26-
2.AA/	-man-	-ris	.	2.A/	-man-	-ris	.	2d\	-man-	-tris	.	2.e/	-man-	-ris	.
!	!	!	!	!	!	!	!	!LO:SIC:v:s=2c#	!	!	!	!	!	!	!
.	.	.	.	.	.	.	.	2cny/	-ti-	Se-	.	.	.	.	.
4AA/	-ti-	Se-	.	4A/	-ti-	Se-	.	.	.	.	.	4e/	-ti-	Se-	.
0D;;	-u(m).	-des	.	0F;;	-u(m)	-des	.	0d;;	-u(m)	-des	.	0d	-u(m)	-des,	.
=27||	=27||	=27||	=27||	=27||	=27||	=27||	=27||	=27||	=27||	=27||	=27||	=27||	=27||	=27||	=27||
*M3/1	*	*	*	*M3/1	*	*	*	*M3/1	*	*	*	*M3/1	*	*	*
1D	2 Qua	4 Te	5 Tu	1A	2 Qua	4 Te	5 Tu	1d	2 Qua	4 Te	5 Tu	1f	2 Qua	4 Te	5 Tu
1D	Vic-	co-	Dux	1A	Vic-	co-	dux	1d	Vic-	co-	Dux	1f	Vic-	co-	dux
!LO:TX:t=P:problem=kreska pseudotaktowa	!	!	!	!LO:TX:t=P:problem=kreska pseudotaktowa	!	!	!	!LO:TX:t=P:problem=kreska pseudotaktowa	!	!	!	!LO:TX:t=P:problem=kreska pseudotaktowa	!	!	!
1GG	-t(us)	-gat	ad	1B-X	-t(us)	-gat	ad	1d	-t(us)	-gat	ad	1g	-t(us)	-gat	ad
=28-	=28-	=28-	=28-	=28-	=28-	=28-	=28-	=28-	=28-	=28-	=28-	=28-	=28-	=28-	=28-
!	!	!	!	!	!	!	!	!LO:TX:a:t=P:problem=# above	!	!	!	!	!	!	!
0AA	eſ	in-	aſt-	0A	es	in-	aſt-	0c#X	es	in-	aſt-	0e	es	in-	aſt-
!LO:TX:t=P::problem=w tym miejscu konieczna elizja&colon;podłożenie tekstu niepewne	!	!	!	!LO:TX:t=P::problem=w tym miejscu konieczna elizja&colon;podłożenie tekstu niepewne	!	!	!	!LO:TX:t=P::problem=w tym miejscu konieczna elizja&colon;podłożenie tekstu niepewne	!	!	!	!LO:TX:t=P::problem=w tym miejscu konieczna elizja&colon;podłożenie tekstu niepewne	!	!	!
!LO:TX:t=P:problem=kreska pseudotaktowa	!	!	!	!LO:TX:t=P:problem=kreska pseudotaktowa	!	!	!	!LO:TX:t=P:problem=kreska pseudotaktowa	!	!	!	!LO:TX:t=P:problem=kreska pseudotaktowa	!	!	!
1D	cle-	-dul-	-ra et	1A	cle-	-dul-	-ra êt	1d	cle-	-dul-	-ra êt	1f	cle-	-dul-	-ra et
=29-	=29-	=29-	=29-	=29-	=29-	=29-	=29-	=29-	=29-	=29-	=29-	=29-	=29-	=29-	=29-
!	!	!	!	!	!	!	!	!LO:TX:a:t=P:problem=# above	!	!	!	!	!	!	!
0AA	-men-	-gên-	Se-	0A	-men-	-gen-	Se-	0c#X	-men-	-gen-	Se-	0e	-men-	-gen-	Se-
!	!	!	!	!	!	!	!	!LO:TX:t=P:problem=kreska pseudotaktowa	!	!	!	!LO:TX:t=P:problem=kreska pseudotaktowa	!	!	!
1AA	-ti-	-ti-	-mi-	1A	-ti-	-ti-	-mi-	1c#	-ti-	-ti-	-mi-	1e	-ti-	-ti-	-mi-
=30-	=30-	=30-	=30-	=30-	=30-	=30-	=30-	=30-	=30-	=30-	=30-	=30-	=30-	=30-	=30-
!LO:TX:t=P:problem=kreska pseudotaktowa	!	!	!	!LO:TX:t=P:problem=kreska pseudotaktowa	!	!	!	!LO:TX:t=P:problem=kreska pseudotaktowa	!	!	!	!LO:TX:t=P:problem=kreska pseudotaktowa	!	!	!
0.D	-a	-a	-ta	0.F	-a	-a	-ta	0.d	-a	-a	-ta	0.d	-a	-a	-ta
=31-	=31-	=31-	=31-	=31-	=31-	=31-	=31-	=31-	=31-	=31-	=31-	=31-	=31-	=31-	=31-
1D	ut	ut	Sis	1d	ut	ut	Sis	1f	Vt	ut	Sis	1a	ut	ut	Sis
1D	nos-	dam-	mê-	1d	nos-	dam-	me-	1f	noſ-	dam-	mê-	1a	noſ-	dam-	me-
!LO:TX:t=P:problem=kreska pseudotaktowa	!	!	!	!LO:TX:t=P:problem=kreska pseudotaktowa	!	!	!	!LO:TX:t=P:problem=kreska pseudotaktowa	!	!	!	!LO:TX:t=P:problem=kreska pseudotaktowa	!	!	!
1BB-X	-tra	-na	-ta	1d	-tra	-na	-ta	1g	-tra	-na	-ta	1b-X	-tra	-na	-ta
=32-	=32-	=32-	=32-	=32-	=32-	=32-	=32-	=32-	=32-	=32-	=32-	=32-	=32-	=32-	=32-
0C	fer-	nos-	nos-	0c	fer-	noſ-	noſ-	0e	fer-	nos-	nos-	0g	fer-	nos-	nos-
!	!	!	!	!LO:TX:t=P:problem=kreska pseudotaktowa	!	!	!	!LO:TX:t=P:problem=kreska pseudotaktowa	!	!	!	!LO:TX:t=P:problem=kreska pseudotaktowa	!	!	!
1AA	-res	-tra	-tris	1c	-res	-tra	-tris	1f	-res	-tra	-tris	1a	-res	-tra	-tris
=33-	=33-	=33-	=33-	=33-	=33-	=33-	=33-	=33-	=33-	=33-	=33-	=33-	=33-	=33-	=33-
0BB-X	cri-	Sar-	Cor-	0d	Cri-	Sar-	Cor-	0f	Cri-	Sar-	Cor-	0g	cri-	Sar-	cor-
!LO:TX:t=P:problem=kreska pseudotaktowa	!	!	!	!	!	!	!	!LO:TX:t=P:problem=kreska pseudotaktowa	!	!	!	!LO:TX:t=P:problem=kreska pseudotaktowa	!	!	!
1C	-mi-	-ci-	-di-	1c	-mi-	-ci-	-di-	1e	-mi-	-ci-	-di-	1g	-mi-	-ci-	-di-
=34-	=34-	=34-	=34-	=34-	=34-	=34-	=34-	=34-	=34-	=34-	=34-	=34-	=34-	=34-	=34-
!LO:TX:t=P:problem=kreska pseudotaktowa	!	!	!	!LO:TX:t=P:problem=kreska pseudotaktowa	!	!	!	!LO:TX:t=P:problem=kreska pseudotaktowa	!	!	!	!LO:TX:t=P:problem=kreska pseudotaktowa	!	!	!
0.FF	-na	-as	-b(us)	0.c	-na	-as	-b(us)	0.f	-na	-as	-b(us)	0.a	-na	-as	-b(us)
=35-	=35-	=35-	=35-	=35-	=35-	=35-	=35-	=35-	=35-	=35-	=35-	=35-	=35-	=35-	=35-
*	*ij	*ij	*ij	*	*ij	*ij	*ij	*	*	*	*ij	*	*ij	*ij	*ij
1F	ut	ut	Sis	1c	ut	ut	Sis	1f	ut	ut	Sis	1a	ut	ut	Sis
1D	nos-	dam-	mê-	1d	nos-	dam-	me-	1f	noſ-	dam-	mê-	1f	nos-	dam-	me-
!	!	!	!	!	!	!	!	!LO:SIC:v:custos:e	!	!	!	!	!	!	!
!LO:TX:t=P:problem=kreska pseudotaktowa	!	!	!	!LO:TX:t=P:problem=kreska pseudotaktowa	!	!	!	!	!	!	!	!LO:TX:t=P:problem=kreska pseudotaktowa	!	!	!
1F	-tra	-na	-ta	1A	-tra	-na	-ta	1cny	-tra	-na	-ta	1a	-tra	-na	-ta
=36-	=36-	=36-	=36-	=36-	=36-	=36-	=36-	=36-	=36-	=36-	=36-	=36-	=36-	=36-	=36-
!	!	!	!	!	!	!	!	!LO:LB:g=original	!	!	!	!	!	!	!
0E	fer-	nos-	nos-	0G	fe-	noſ-	noſ-	2e\	fe-	noS-	nos-	0g	fer-	nos-	nos-
.	.	.	.	.	.	.	.	2d\	.	.	.	.	.	.	.
.	.	.	.	.	.	.	.	2B/	.	.	.	.	.	.	.
.	.	.	.	.	.	.	.	2c/	.	.	.	.	.	.	.
!LO:TX:t=P:problem=kreska pseudotaktowa	!	!	!	!LO:TX:t=P:problem=kreska pseudotaktowa	!	!	!	!LO:TX:t=P:problem=kreska pseudotaktowa	!	!	!	!LO:TX:t=P:problem=kreska pseudotaktowa	!	!	!
1D	-res	-tra	-tris	1A	-res	-tra	-tris	1d	-res	-tra	-tris	1f	-res	-tra	-tris
=37-	=37-	=37-	=37-	=37-	=37-	=37-	=37-	=37-	=37-	=37-	=37-	=37-	=37-	=37-	=37-
0AA	cri-	Sar-	Cor-	0A	Cri-	Sar-	Cor-	0d	Cri-	Sar-	Cor-	0e	cri-	Sar-	cor-
!	!	!	!	!	!	!	!	!	!	!	!	!LO:TX:t=P:problem=kreska pseudotaktowa	!	!	!
1AA	-mi-	-ci-	-di-	1A	-mi-	-ci-	-di-	1c#X	-mi-	-ci-	-di-	1e	-mi-	-ci-	-di-
=38-	=38-	=38-	=38-	=38-	=38-	=38-	=38-	=38-	=38-	=38-	=38-	=38-	=38-	=38-	=38-
!LO:TX:t=P:problem=kreska pseudotaktowa	!	!	!	!LO:TX:t=P:problem=kreska pseudotaktowa	!	!	!	!LO:TX:t=P:problem=kreska pseudotaktowa	!	!	!	!LO:TX:t=P:problem=kreska pseudotaktowa	!	!	!
0.D	-na	-as	-b(us)	0.F	-na	-as	-b(us)	0.d	-na	-as	-b(us)	0.f	-na	-as	-b(us)
*	*Xij	*Xij	*Xij	*	*Xij	*Xij	*Xij	*	*	*	*Xij	*	*Xij	*Xij	*Xij
=39-	=39-	=39-	=39-	=39-	=39-	=39-	=39-	=39-	=39-	=39-	=39-	=39-	=39-	=39-	=39-
!	!	!	!	!LO:TX:t=P:problem=kreska pseudotaktowa	!	!	!	!	!	!	!	!LO:LB:g=original	!	!	!
!LO:LB:g=original	!	!	!	!LO:LB:g=original	!	!	!	!	!	!	!	!	!	!	!
1A	mor-	Tu-	Sis	00.r	.	.	.	00.r	.	.	.	1cc	Mor-	Tu-	Sis
1F	-te(m)	-i-	lac-	.	.	.	.	.	.	.	.	1a	-te(m)	-i-	lac-
!LO:TX:t=P:problem=kreska pseudotaktowa	!	!	!	!	!	!	!	!	!	!	!	!LO:TX:t=P:problem=kreska pseudotaktowa	!	!	!
1A	Sub-	-q(ue)	-ry-	.	.	.	.	.	.	.	.	1cc	Sub-	-q(ue)	-ry-
=40-	=40-	=40-	=40-	=40-	=40-	=40-	=40-	=40-	=40-	=40-	=40-	=40-	=40-	=40-	=40-
1.G	-i-	Vul-	-ma-	.	.	.	.	.	.	.	.	1.bny	-i-	Vul-	-ma-
2F\	.	.	.	.	.	.	.	.	.	.	.	2a\	.	.	.
2E\	.	.	.	.	.	.	.	.	.	.	.	2g\	.	.	.
!LO:TX:t=P:problem=kreska pseudotaktowa	!	!	!	!	!	!	!	!	!	!	!	!LO:TX:t=P:problem=kreska pseudotaktowa	!	!	!
2D/	.	.	.	.	.	.	.	.	.	.	.	2f/	.	.	.
=41-	=41-	=41-	=41-	=41-	=41-	=41-	=41-	=41-	=41-	=41-	=41-	=41-	=41-	=41-	=41-
2C/	.	-t(us)	.	1e	Mor-	Tu-	Sis	1g	Mor-	Tu-	Sis	2e/	.	.	.
2D/	.	.	.	.	.	.	.	.	.	.	.	2f/	.	.	.
2E/	.	.	.	1c	-te(m)	-i-	lac-	1e	-te(m)	-i-	lac-	2g/	.	.	.
2D/	.	.	.	.	.	.	.	.	.	.	.	2f/	.	.	.
!LO:TX:t=P:problem=kreska pseudotaktowa	!	!	!	!LO:TX:t=P:problem=kreska pseudotaktowa	!	!	!	!LO:TX:t=P:problem=kreska pseudotaktowa	!	!	!	!LO:TX:t=P:problem=kreska pseudotaktowa	!	!	!
1C	.	tui-	-ru(m)	1e	Sub-	-q(ue)	-ry-	1g	Sub-	-q(ue)	-ry-	1e	-res	-t(us)	-ru(m)
=42-	=42-	=42-	=42-	=42-	=42-	=42-	=42-	=42-	=42-	=42-	=42-	=42-	=42-	=42-	=42-
*	*	*	*	*	*	*	*	*	*	*	*	*	*ij	*ij	*ij
0D	-res	-q(ue)	lac-	1.d	-i-	Vul-	-ma-	1.f	-i-	Vul-	-ma-	(2a\	Mor-	Tu-	Sis
.	.	.	.	.	.	.	.	.	.	.	.	2g/)	.	.	.
.	.	.	.	.	.	.	.	.	.	.	.	1f	-te(m)	-i-	lac-
.	.	.	.	2c\	.	.	.	2e\	.	.	.	.	.	.	.
!LO:TX:t=P:problem=kreska pseudotaktowa	!	!	!	!	!	!	!	!	!	!	!	!LO:TX:t=P:problem=kreska pseudotaktowa	!	!	!
1D	Sub-	Vul-	-ry-	2Bny\	.	.	.	2d\	.	.	.	1f	Sub-	-q(ue)	-ry-
!	!	!	!	!LO:TX:t=P:problem=kreska pseudotaktowa	!	!	!	!LO:TX:t=P:problem=kreska pseudotaktowa	!	!	!	!	!	!	!
.	.	.	.	2A/	.	.	.	2cny/	.	.	.	.	.	.	.
=43-	=43-	=43-	=43-	=43-	=43-	=43-	=43-	=43-	=43-	=43-	=43-	=43-	=43-	=43-	=43-
*	*	*	*	*col	*	*	*	*	*	*	*	*	*	*	*
0E	-i-	-t(us)	-ma-	0G	.	.	.	0B	.	.	.	0e	-i-	Vul-	-ma-
!LO:TX:t=P:problem=kreska pseudotaktowa	!	!	!	!	!	!	!	!	!	!	!	!LO:TX:t=P:problem=kreska pseudotaktowa	!	!	!
1F	-res	.	-ru(m)	0A	-res	-t(us)	ru(m)	1A	-res	-t(us)	-ru(m)	1d	-res	-t(us)	-ru(m)
*	*	*	*	*Xcol	*	*	*	*	*	*	*	*	*Xij	*Xij	*Xij
=44-	=44-	=44-	=44-	=44-	=44-	=44-	=44-	=44-	=44-	=44-	=44-	=44-	=44-	=44-	=44-
0E	in-	com-	gau-	.	.	.	.	0B	in-	com-	gau-	0e	in-	com-	gau-
!	!	!	!	!LO:TX:t=P:problem=wartość poprawiona z 2	!	!	!	!	!	!	!	!	!	!	!
.	.	.	.	1.G	in-	com-	gau-	.	.	.	.	.	.	.	.
!	!	!	!	!	!	!	!	!LO:TX:t=P:problem=kreska pseudotaktowa	!	!	!	!LO:TX:t=P:problem=kreska pseudotaktowa	!	!	!
1E	-no-	-po-	-di-	.	.	.	.	1B	-no-	-po-	-di-	1e	-no-	-po-	-di-
!	!	!	!	!LO:TX:t=P:problem=kreska pseudotaktowa	!	!	!	!	!	!	!	!	!	!	!
.	.	.	.	2G/	-no-	-po-	-di-	.	.	.	.	.	.	.	.
=45-	=45-	=45-	=45-	=45-	=45-	=45-	=45-	=45-	=45-	=45-	=45-	=45-	=45-	=45-	=45-
0AA	-cens	-tes	-u(m)	0A	-cenſ	-tes	-u(m)	0c	-cens	-tes	-u(m)	0e	-cens	-tes	-um
!LO:TX:t=P:problem=kreska pseudotaktowa	!	!	!	!LO:TX:t=P:problem=kreska pseudotaktowa	!	!	!	!LO:TX:t=P:problem=kreska pseudotaktowa	!	!	!	!LO:TX:t=P:problem=kreska pseudotaktowa	!	!	!
1AA	à	di-	Sis	1A	à	di-	Sis	1c	a	di-	Sis	1e	à	di-	Sis
=46-	=46-	=46-	=46-	=46-	=46-	=46-	=46-	=46-	=46-	=46-	=46-	=46-	=46-	=46-	=46-
0D	Mor-	-tes	dul-	0A	Mor-	-tes	dul-	0d	Mor-	-tes	dul-	0f	Mor-	-tes	dul-
!LO:TX:t=P:problem=kreska pseudotaktowa	!	!	!	!LO:TX:t=P:problem=kreska pseudotaktowa	!	!	!	!	!	!	!	!LO:TX:t=P:problem=kreska pseudotaktowa	!	!	!
1BB-X	-tè	Be-	-ce	1d	-te	be-	-ce	1d	-te	Be-	-ce	1g	-te	be-	-ce
=47-	=47-	=47-	=47-	=47-	=47-	=47-	=47-	=47-	=47-	=47-	=47-	=47-	=47-	=47-	=47-
*	*	*	*	*	*	*	*	*col	*	*	*	*	*	*	*
0AA	nos	-a-	Vi-	0c	Nos	-a-	Vi-	0e	nos	-a-	Vi-	0a	nos	-a-	Vi-
!	!	!	!	!LO:TX:t=P:problem=kreska pseudotaktowa	!	!	!	!	!	!	!	!LO:TX:t=P:problem=kreska pseudotaktowa	!	!	!
1FF	ut	-to	-tae	1c	ut	-to	-tae	0f	ut	-to	-tae	1a	ut	-to	-tae
*	*	*	*	*	*	*	*	*Xcol	*	*	*	*	*	*	*
=48-	=48-	=48-	=48-	=48-	=48-	=48-	=48-	=48-	=48-	=48-	=48-	=48-	=48-	=48-	=48-
0C	tol-	lu-	prae-	0c	tol-	lu-	prae-	.	.	.	.	0g	tol-	lu-	prae-
.	.	.	.	.	.	.	.	1.e	tol-	lu-	prae-	.	.	.	.
!LO:TX:t=P:problem=kreska pseudotaktowa	!	!	!	!	!	!	!	!	!	!	!	!	!	!	!
1C	-le-	-mi-	-mi-	1c	-le-	-mi-	-mi-	.	.	.	.	1g	-le-	-mi-	-mi-
!	!	!	!	!	!	!	!	!LO:TX:t=P:problem=kreska pseudotaktowa	!	!	!	!	!	!	!
.	.	.	.	.	.	.	.	2e\	-lê-	-mi-	-mi-	.	.	.	.
=49-	=49-	=49-	=49-	=49-	=49-	=49-	=49-	=49-	=49-	=49-	=49-	=49-	=49-	=49-	=49-
!LO:TX:t=P:problem=kreska pseudotaktowa	!	!	!	!LO:TX:t=P:problem=kreska pseudotaktowa	!	!	!	!LO:TX:t=P:problem=kreska pseudotaktowa	!	!	!	!LO:TX:t=P:problem=kreska pseudotaktowa	!	!	!
0.FF	-res	-ne	-u(m)	0.c	-res	-ne	-u(m)	0.f	-res	-ne	-u(m)	0.a	-res	-ne	-u(m)
=50-	=50-	=50-	=50-	=50-	=50-	=50-	=50-	=50-	=50-	=50-	=50-	=50-	=50-	=50-	=50-
*	*ij	*	*ij	*	*ij	*ij	*ij	*	*ij	*ij	*ij	*	*	*ij	*ij
1A	à	di-	Sis	1A	à	di-	Sis	1c	a	di-	Sis	1e	à	di-	Sis
1A	Mor-	-tes	dul-	1A	Mor-	-tes	dul-	1c	Mor-	-tes	dul-	1e	Mor-	-tes	dul-
!LO:TX:t=P:problem=kreska pseudotaktowa	!	!	!	!	!	!	!	!LO:TX:t=P:problem=kreska pseudotaktowa	!	!	!	!LO:TX:t=P:problem=kreska pseudotaktowa	!	!	!
1F	-tè	Be-	-ce	1A	-te	be-	-ce	1d	-te	Be-	-ce	1f	-te	be-	-ce
=51-	=51-	=51-	=51-	=51-	=51-	=51-	=51-	=51-	=51-	=51-	=51-	=51-	=51-	=51-	=51-
*	*	*	*	*col	*	*	*	*	*	*	*	*	*	*	*
0E	nos	-a-	Vit-	0B	Nos	-a-	Vit-	0e	nos	-a-	Vit-	0g	nos	-a-	Vit-
!	!	!	!	!	!	!	!	!	!	!	!	!LO:TX:t=P:problem=kreska pseudotaktowa	!	!	!
1D	ut	-to	-ae	0d	ut	-to	-ae	1a	ut	-to	-ae	1f	ut	-to	-ae
*	*	*	*	*Xcol	*	*	*	*	*	*	*	*	*	*	*
=52-	=52-	=52-	=52-	=52-	=52-	=52-	=52-	=52-	=52-	=52-	=52-	=52-	=52-	=52-	=52-
0AA	tol-	lu-	prae-	.	.	.	.	0a	tol-	lu-	prae-	0e	tol-	lu-	prae-
!	!	!	!	!LO:TX:a:t=P:problem=# above	!	!	!	!	!	!	!	!	!	!	!
.	.	.	.	1.c#X	tol-	lu-	prae-	.	.	.	.	.	.	.	.
!	!	!	!	!	!	!	!	!LO:TX:t=P:problem=kreska pseudotaktowa	!	!	!	!	!	!	!
1AA	-le-	-mi-	-mi-	.	.	.	.	1a	-lê-	-mi-	-mi-	1e	-le-	-mi-	-mi-
.	.	.	.	2c#\	-le-	-mi-	-mi-	.	.	.	.	.	.	.	.
=53-	=53-	=53-	=53-	=53-	=53-	=53-	=53-	=53-	=53-	=53-	=53-	=53-	=53-	=53-	=53-
!LO:TX:t=P:problem=kreska pseudotaktowa	!	!	!	!LO:TX:t=P:problem=kreska pseudotaktowa	!	!	!	!	!	!	!	!LO:TX:t=P:problem=kreska pseudotaktowa	!	!	!
0.D;;	-res	-nê	-u(m)	0.d;;	-res	-ne	-u(m)	0.a	-res	-ne	-u(m)	0.f;;	-res	-ne	-u(m)
*	*Xij	*	*Xij	*	*Xij	*Xij	*Xij	*	*Xij	*Xij	*Xij	*	*	*Xij	*Xij
=54||	=54||	=54||	=54||	=54-	=54-	=54-	=54-	=54-	=54-	=54-	=54-	=54-	=54-	=54-	=54-
*M2/1	*	*	*	*M2/1	*	*	*	*M2/1	*	*	*	*M2/1	*	*	*
*met(C|)	*	*	*	*met(C|)	*	*	*	*met(C|)	*	*	*	*met(C|)	*	*	*
0GG	.	A-	.	2.B-X\	.	A-	.	0d	.	.	A-	2.g\	.	.	A-
.	.	.	.	4A/	.	.	.	.	.	.	.	4a\	.	.	.
.	.	.	.	1G	.	.	.	.	.	.	.	1b-X	.	.	.
=55-	=55-	=55-	=55-	=55-	=55-	=55-	=55-	=55-	=55-	=55-	=55-	=55-	=55-	=55-	=55-
0D;;	.	-men.	.	0F;;	.	-men	.	0d;;	.	.	-men.	0a;;	.	.	-men
!LO:PB:g=original	!	!	!	!LO:PB:g=original	!	!	!	!LO:PB:g=original	!	!	!	!LO:PB:g=original	!	!	!
==	==	==	==	==	==	==	==	==	==	==	==	==	==	==	==
*-	*-	*-	*-	*-	*-	*-	*-	*-	*-	*-	*-	*-	*-	*-	*-
!!!system-decoration: [(s1,s2,s3,s4)]
!!!AIN: 1 alto 1 bass 1 soprn 1 tenor
!!!ENC: Marta Chmielewska
!!!END: 2021-03-30
!!!ENC: Kamil Watkowski
!!!END: 2021-03-10
